X:75
T:My Heart's in the Highlands
C:arr. Carlo Minasi
M:3/4
L:1/8
B:Chappell's One Hundred Scotch Melodies
B:Arranged for the Concertina by Carlo Minasi
Q:"Andante  "1/4=110
Z:Peter Dunk 2012
K:F
!p!([FA,]>[GC])|[A2F2] ([GE][AF][cA][AF])|\
([G2C2][F2A,2]) ([FA,]>[GC])|[A2F2][c2A2] ([fd]>[ec])|\
{[d2B2]} [c4A4] (d>c)|{B}([B2E2][A2F2]) (G>F)|
%
(FA) C2 (c>B)|(A2F2[G2E2C2])|[F4A,4]||\
[F2A,2]|([G2C2][A2F2]) [f2A2]|(F2E2F2)|
%
([G2E2C2][A2F2])[f2A2]|([c2A2][A2F2][F2A,2])|\
([G2C2][A2F2][c2F2A,2])|([F2C2A,2][E2C2B,2][d2F2B,2])|\
([c2F2A,2][A2C2][G2B,2])|[F4A,4]||

